src/lib/packages/icons/src/assets/filled/search-minus.svg

<svg xmlns="http://www.w3.org/2000/svg" width="24" height="24" fill="none"><path fill="currentColor" fill-rule="evenodd" d="m21.53 20.47-4.37-4.37A7.94 7.94 0 0 0 19 11c0-4.42-3.58-8-8-8s-8 3.58-8 8 3.58 8 8 8c1.94 0 3.72-.69 5.1-1.84l4.37 4.37c.15.15.34.22.53.22s.38-.07.53-.22c.29-.29.29-.77 0-1.06ZM14 11.75H8c-.41 0-.75-.34-.75-.75s.34-.75.75-.75h6c.41 0 .75.34.75.75s-.34.75-.75.75Z" clip-rule="evenodd"/></svg>

<svg width="24" height="24" viewBox="0 0 24 24" fill="none" xmlns="http://www.w3.org/2000/svg">
<path fill-rule="evenodd" clip-rule="evenodd" d="M21.53 20.47L17.16 16.1C18.31 14.72 19 12.94 19 11C19 6.58 15.42 3 11 3C6.58 3 3 6.58 3 11C3 15.42 6.58 19 11 19C12.94 19 14.72 18.31 16.1 17.16L20.47 21.53C20.62 21.68 20.81 21.75 21 21.75C21.19 21.75 21.38 21.68 21.53 21.53C21.82 21.24 21.82 20.76 21.53 20.47ZM14 11.75H8C7.59 11.75 7.25 11.41 7.25 11C7.25 10.59 7.59 10.25 8 10.25H14C14.41 10.25 14.75 10.59 14.75 11C14.75 11.41 14.41 11.75 14 11.75Z" fill="currentColor"/>
</svg>
